public/images/broadcasters/francetv.svg

<svg clip-rule="evenodd" fill-rule="evenodd" stroke-linejoin="round" stroke-miterlimit="2" viewBox="0 0 531 92" xmlns="http://www.w3.org/2000/svg" xmlns:xlink="http://www.w3.org/1999/xlink"><radialGradient id="a" cx="0" cy="0" gradientTransform="matrix(-139.41 -0 0 -139.41 396.99 59.694)" gradientUnits="userSpaceOnUse" r="1"><stop offset="0" stop-color="#64c8d7"/><stop offset=".28" stop-color="#60c4d6"/><stop offset=".57" stop-color="#53b9d2"/><stop offset=".86" stop-color="#3fa7cc"/><stop offset="1" stop-color="#329bc8"/></radialGradient><linearGradient id="b"><stop offset="0" stop-color="#ff503c"/><stop offset=".46" stop-color="#ff5447"/><stop offset="1" stop-color="#ff5a5a"/></linearGradient><radialGradient id="c" cx="396.999" cy="59.705" gradientUnits="userSpaceOnUse" r="47.42" xlink:href="#b"/><radialGradient id="d" cx="0" cy="0" gradientTransform="matrix(-100.12 -0 0 -100.12 396.99 59.694)" gradientUnits="userSpaceOnUse" r="1"><stop offset="0" stop-color="#ffaa46"/><stop offset=".75" stop-color="#fdab48"/><stop offset=".81" stop-color="#f6b04f"/><stop offset=".86" stop-color="#e9b85b"/><stop offset=".93" stop-color="#c1d182"/><stop offset=".96" stop-color="#a4e39d"/><stop offset=".99" stop-color="#83f8bd"/><stop offset="1" stop-color="#78ffc8"/></radialGradient><radialGradient id="e" cx="0" cy="0" gradientTransform="matrix(1260.46 0 0 2540.29 12731.4 6776.53)" gradientUnits="userSpaceOnUse" r="1" xlink:href="#b"/><path d="m43.25 14.374c1.646.015 3.284.227 4.88.63l2.5-13.88c-3.147-.794-6.385-1.17-9.63-1.119-8.25 0-14.61 2.99-18.87 7.12s-6.51 10-6.51 19.76v2.5h-15.62v13.75h15.62v46.88h16.26v-46.88h18.75v-13.75h-18.75v-1.88c0-5.63.87-7.88 2.25-9.63 2-2.37 5.12-3.5 9.12-3.5zm117.4 75.64h-15.62v-4.87c-4.693 4.029-10.696 6.205-16.88 6.12-4.322.011-8.598-.897-12.543-2.664-3.944-1.767-7.468-4.353-10.337-7.586-5.044-5.931-7.793-13.474-7.75-21.26 0-17.88 13.25-31.63 29.75-31.63 6.45-.079 12.728 2.084 17.76 6.12v-4.86h15.62zm-16.25-39.38c-1.741-2.334-4.005-4.228-6.61-5.531-2.604-1.302-5.478-1.976-8.39-1.969-9.5 0-15.63 7.88-15.63 16.63 0 9.5 6.88 16.5 16 16.5 2.863.022 5.688-.648 8.236-1.954 2.547-1.306 4.741-3.209 6.394-5.546zm29.469-21.25v60.63h16.26v-39.38c1.752-2.262 3.983-4.108 6.534-5.405 2.55-1.296 5.356-2.012 8.216-2.095 3.37-.122 6.652 1.093 9.13 3.38 2.25 2.25 3.62 5.37 3.62 11.37v32.13h16.26v-30.88c0-10.37-2.26-16.5-6.26-21.25-2.572-3.064-5.787-5.526-9.416-7.21-3.628-1.685-7.583-2.552-11.584-2.54-6.249-.023-12.31 2.142-17.13 6.12v-4.87zm164.83 61.88c9.38 0 19-3.87 24.88-10.87l-9.2-9.26c-2.88 3.12-8.38 7-15.25 7-8.63 0-15.51-5.88-16.38-14.38h42c.244-1.527.354-3.073.33-4.62 0-16.88-11.88-31-28.63-31-18 0-29.51 14.75-29.51 31.63 0 19 13.63 31.5 31.76 31.5zm5.766-46.97c2.21 1.959 3.628 4.658 3.984 7.59h-25c.75-5.5 6.25-10.63 13-10.63 2.954 0 5.805 1.082 8.016 3.04zm-68.744 46.97c11.37 0 20.38-4.12 27.5-13.62l-12.5-9.39c-1.587 2.41-3.736 4.397-6.262 5.791-2.526 1.393-5.353 2.152-8.238 2.209-9.88 0-16.76-7-16.76-16.5-.072-3.277.848-6.499 2.639-9.243 1.791-2.745 4.369-4.885 7.397-6.14 2.011-.832 4.168-1.253 6.344-1.236 2.737.033 5.429.706 7.86 1.965 2.43 1.259 4.533 3.069 6.14 5.285l11.51-10.13c-3.06-3.816-6.945-6.89-11.363-8.989-4.419-2.099-9.255-3.17-14.147-3.131-18.5 0-32.63 14.13-32.63 31.63s13.75 31.5 32.51 31.5zm-180.7-47.51c-1.925-.46-3.901-.668-5.88-.62-7.13 0-12.75 5.13-14.75 8.75v38.13h-16.261v-60.63h15.62v6.12c3.63-4.5 10.26-7.37 17.63-7.37 1.844.013 3.684.18 5.5.5l-1.86 15.12z" fill="#fff"/><g fill-rule="nonzero"><path d="m530.41 29.384h-16.88l-16.63 37-16.63-37h-30.52v-16.88h-16.29v16.88h-15.62v13.75h15.62v21.25c0 8.63 1.38 14 4.5 18.13 4.13 5.5 11.26 8.75 21 8.75 3.416.017 6.82-.403 10.13-1.25l-2.5-13.75c-2.188.395-4.406.606-6.63.63-4 0-6.63-1.13-8.25-3-1.38-1.63-2-3.88-2-7.63v-23.13h20l21.56 46.88h11.25z" fill="url(#a)"/><path d="m396.999 76.264c9.146 0 16.56-7.414 16.56-16.56 0-9.145-7.414-16.56-16.56-16.56-9.145 0-16.56 7.415-16.56 16.56 0 9.146 7.415 16.56 16.56 16.56z" fill="url(#c)"/><path d="m480.27 29.384h-30.52v-16.88h-16.29v16.88h-15.62v13.75h15.62v21.25c0 8.63 1.38 14 4.5 18.13 4.13 5.5 11.26 8.75 21 8.75 3.416.017 6.82-.403 10.13-1.25l-2.5-13.75c-2.188.395-4.406.606-6.63.63-4 0-6.63-1.13-8.25-3-1.38-1.63-2-3.88-2-7.63v-23.13h20l21.56 46.88h1.16c2.436-7.67 3.93-15.609 4.45-23.64z" fill="url(#d)"/><path d="m433.46 29.384h-15.62v13.75h15.62v21.25c0 8.63 1.38 14 4.5 18.13l.36.44c4.715-8.369 6.775-17.974 5.907-27.541s-4.623-18.645-10.767-26.029z" fill="url(#e)"/></g></svg>

<?xml version="1.0" encoding="UTF-8" standalone="no"?>
<!DOCTYPE svg PUBLIC "-//W3C//DTD SVG 1.1//EN" "http://www.w3.org/Graphics/SVG/1.1/DTD/svg11.dtd">
<svg width="100%" height="100%" viewBox="0 0 531 92" version="1.1" xmlns="http://www.w3.org/2000/svg" xmlns:xlink="http://www.w3.org/1999/xlink" xml:space="preserve" xmlns:serif="http://www.serif.com/" style="fill-rule:evenodd;clip-rule:evenodd;stroke-linejoin:round;stroke-miterlimit:2;">
    <path d="M43.25,14.374C44.896,14.389 46.534,14.601 48.13,15.004L50.63,1.124C47.483,0.33 44.245,-0.046 41,0.005C32.75,0.005 26.39,2.995 22.13,7.125C17.87,11.255 15.62,17.125 15.62,26.885L15.62,29.385L0,29.385L0,43.135L15.62,43.135L15.62,90.015L31.88,90.015L31.88,43.135L50.63,43.135L50.63,29.385L31.88,29.385L31.88,27.505C31.88,21.875 32.75,19.625 34.13,17.875C36.13,15.505 39.25,14.375 43.25,14.375L43.25,14.374ZM160.65,90.014L145.03,90.014L145.03,85.144C140.337,89.173 134.334,91.349 128.15,91.264C123.828,91.275 119.552,90.367 115.607,88.6C111.663,86.833 108.139,84.247 105.27,81.014C100.226,75.083 97.477,67.54 97.52,59.754C97.52,41.874 110.77,28.124 127.27,28.124C133.72,28.045 139.998,30.208 145.03,34.244L145.03,29.384L160.65,29.384L160.65,90.014ZM144.4,50.634C142.659,48.3 140.395,46.406 137.79,45.103C135.186,43.801 132.312,43.127 129.4,43.134C119.9,43.134 113.77,51.014 113.77,59.764C113.77,69.264 120.65,76.264 129.77,76.264C132.633,76.286 135.458,75.616 138.006,74.31C140.553,73.004 142.747,71.101 144.4,68.764L144.4,50.634ZM173.869,29.384L173.869,90.014L190.129,90.014L190.129,50.634C191.881,48.372 194.112,46.526 196.663,45.229C199.213,43.933 202.019,43.217 204.879,43.134C208.249,43.012 211.531,44.227 214.009,46.514C216.259,48.764 217.629,51.884 217.629,57.884L217.629,90.014L233.889,90.014L233.889,59.134C233.889,48.764 231.629,42.634 227.629,37.884C225.057,34.82 221.842,32.358 218.213,30.674C214.585,28.989 210.63,28.122 206.629,28.134C200.38,28.111 194.319,30.276 189.499,34.254L189.499,29.384L173.869,29.384ZM338.699,91.264C348.079,91.264 357.699,87.394 363.579,80.394L354.379,71.134C351.499,74.254 345.999,78.134 339.129,78.134C330.499,78.134 323.619,72.254 322.749,63.754L364.749,63.754C364.993,62.227 365.103,60.681 365.079,59.134C365.079,42.254 353.199,28.134 336.449,28.134C318.449,28.134 306.939,42.884 306.939,59.764C306.939,78.764 320.569,91.264 338.699,91.264ZM344.465,44.294C346.675,46.253 348.093,48.952 348.449,51.884L323.449,51.884C324.199,46.384 329.699,41.254 336.449,41.254C339.403,41.254 342.254,42.336 344.465,44.294ZM275.721,91.264C287.091,91.264 296.101,87.144 303.221,77.644L290.721,68.254C289.134,70.664 286.985,72.651 284.459,74.045C281.933,75.438 279.106,76.197 276.221,76.254C266.341,76.254 259.461,69.254 259.461,59.754C259.389,56.477 260.309,53.255 262.1,50.511C263.891,47.766 266.469,45.626 269.497,44.371C271.508,43.539 273.665,43.118 275.841,43.135C278.578,43.168 281.27,43.841 283.701,45.1C286.131,46.359 288.234,48.169 289.841,50.385L301.351,40.255C298.291,36.439 294.406,33.365 289.988,31.266C285.569,29.167 280.733,28.096 275.841,28.135C257.341,28.135 243.211,42.265 243.211,59.765C243.211,77.265 256.961,91.265 275.721,91.265L275.721,91.264ZM95.021,43.754C93.096,43.294 91.12,43.086 89.141,43.134C82.011,43.134 76.391,48.264 74.391,51.884L74.391,90.014L58.13,90.014L58.13,29.384L73.75,29.384L73.75,35.504C77.38,31.004 84.01,28.134 91.38,28.134C93.224,28.147 95.064,28.314 96.88,28.634L95.02,43.754L95.021,43.754Z" style="fill:white;"/>
    <path d="M530.41,29.384L513.53,29.384L496.9,66.384L480.27,29.384L449.75,29.384L449.75,12.504L433.46,12.504L433.46,29.384L417.84,29.384L417.84,43.134L433.46,43.134L433.46,64.384C433.46,73.014 434.84,78.384 437.96,82.514C442.09,88.014 449.22,91.264 458.96,91.264C462.376,91.281 465.78,90.861 469.09,90.014L466.59,76.264C464.402,76.659 462.184,76.87 459.96,76.894C455.96,76.894 453.33,75.764 451.71,73.894C450.33,72.264 449.71,70.014 449.71,66.264L449.71,43.134L469.71,43.134L491.27,90.014L502.52,90.014L530.41,29.384Z" style="fill:url(#_Radial1);fill-rule:nonzero;"/>
    <path d="M396.999,76.264C406.145,76.264 413.559,68.85 413.559,59.704C413.559,50.559 406.145,43.144 396.999,43.144C387.854,43.144 380.439,50.559 380.439,59.704C380.439,68.85 387.854,76.264 396.999,76.264Z" style="fill:url(#_Radial2);fill-rule:nonzero;"/>
    <path d="M480.27,29.384L449.75,29.384L449.75,12.504L433.46,12.504L433.46,29.384L417.84,29.384L417.84,43.134L433.46,43.134L433.46,64.384C433.46,73.014 434.84,78.384 437.96,82.514C442.09,88.014 449.22,91.264 458.96,91.264C462.376,91.281 465.78,90.861 469.09,90.014L466.59,76.264C464.402,76.659 462.184,76.87 459.96,76.894C455.96,76.894 453.33,75.764 451.71,73.894C450.33,72.264 449.71,70.014 449.71,66.264L449.71,43.134L469.71,43.134L491.27,90.014L492.43,90.014C494.866,82.344 496.36,74.405 496.88,66.374L480.27,29.384Z" style="fill:url(#_Radial3);fill-rule:nonzero;"/>
    <path d="M433.46,29.384L417.84,29.384L417.84,43.134L433.46,43.134L433.46,64.384C433.46,73.014 434.84,78.384 437.96,82.514L438.32,82.954C443.035,74.585 445.095,64.98 444.227,55.413C443.359,45.846 439.604,36.768 433.46,29.384Z" style="fill:url(#_Radial4);fill-rule:nonzero;"/>
    <defs>
        <radialGradient id="_Radial1" cx="0" cy="0" r="1" gradientUnits="userSpaceOnUse" gradientTransform="matrix(-139.41,-1.06748e-13,1.06748e-13,-139.41,396.99,59.694)"><stop offset="0" style="stop-color:rgb(100,200,215);stop-opacity:1"/><stop offset="0.28" style="stop-color:rgb(96,196,214);stop-opacity:1"/><stop offset="0.57" style="stop-color:rgb(83,185,210);stop-opacity:1"/><stop offset="0.86" style="stop-color:rgb(63,167,204);stop-opacity:1"/><stop offset="1" style="stop-color:rgb(50,155,200);stop-opacity:1"/></radialGradient>
        <radialGradient id="_Radial2" cx="0" cy="0" r="1" gradientUnits="userSpaceOnUse" gradientTransform="matrix(47.42,0,0,47.42,396.999,59.705)"><stop offset="0" style="stop-color:rgb(255,80,60);stop-opacity:1"/><stop offset="0.46" style="stop-color:rgb(255,84,71);stop-opacity:1"/><stop offset="1" style="stop-color:rgb(255,90,90);stop-opacity:1"/></radialGradient>
        <radialGradient id="_Radial3" cx="0" cy="0" r="1" gradientUnits="userSpaceOnUse" gradientTransform="matrix(-100.12,-7.66633e-14,7.66633e-14,-100.12,396.99,59.694)"><stop offset="0" style="stop-color:rgb(255,170,70);stop-opacity:1"/><stop offset="0.75" style="stop-color:rgb(253,171,72);stop-opacity:1"/><stop offset="0.81" style="stop-color:rgb(246,176,79);stop-opacity:1"/><stop offset="0.86" style="stop-color:rgb(233,184,91);stop-opacity:1"/><stop offset="0.93" style="stop-color:rgb(193,209,130);stop-opacity:1"/><stop offset="0.96" style="stop-color:rgb(164,227,157);stop-opacity:1"/><stop offset="0.99" style="stop-color:rgb(131,248,189);stop-opacity:1"/><stop offset="1" style="stop-color:rgb(120,255,200);stop-opacity:1"/></radialGradient>
        <radialGradient id="_Radial4" cx="0" cy="0" r="1" gradientUnits="userSpaceOnUse" gradientTransform="matrix(1260.46,0,0,2540.29,12731.4,6776.53)"><stop offset="0" style="stop-color:rgb(255,80,60);stop-opacity:1"/><stop offset="0.46" style="stop-color:rgb(255,84,71);stop-opacity:1"/><stop offset="1" style="stop-color:rgb(255,90,90);stop-opacity:1"/></radialGradient>
    </defs>
</svg>
